X: 42924
T: Willafjord
R: reel
M: 4/4
K: Dmajor
A2 FA DAFA|B2 GB DBGB|A2 FA D2 FA|EFGA G2 (3FED|
ADFA DAFA|BDGB D2 BG|A2 (3Bcd ef (3gfe|fd (3edc d2:|
f2 df Afdf|geaf gfeg|fAdf Afdf|(3eee ce Aece|
(3fff df Af (3fff|geaf gfec|ABcd e2 (3gfe|f2 e2 d2-:|

